public/assets/images/icons/green/microphone.svg

<svg width="16" height="16" xmlns="http://www.w3.org/2000/svg" viewBox="0 0 54 54"><path d="M27 36a7 7 0 0 0 7-7V10a7 7 0 1 0-14 0v19a7 7 0 0 0 7 7Z" fill="#00962d"/><path d="M40 29v-2a3 3 0 0 0-3-3v4.65A10.24 10.24 0 0 1 27.68 39 10 10 0 0 1 17 29v-5a3 3 0 0 0-3 3v2a13 13 0 0 0 11.5 12.88V46H20a3 3 0 0 0-3 3v2h20v-2a3 3 0 0 0-3-3h-5.5v-4.12A13 13 0 0 0 40 29Z" fill="#00962d"/></svg>

<svg width="16" height="16" xmlns="http://www.w3.org/2000/svg" viewBox="0 0 54 54"><defs><style>.a{fill:#00962d;}</style></defs><path class="a" d="M27,36a7,7,0,0,0,7-7V10a7,7,0,1,0-14,0V29A7,7,0,0,0,27,36Z"/><path class="a" d="M40,29V27a3,3,0,0,0-3-3v4.65A10.24,10.24,0,0,1,27.68,39,10,10,0,0,1,17,29V24a3,3,0,0,0-3,3v2A13,13,0,0,0,25.5,41.88V46H20a3,3,0,0,0-3,3v2H37V49a3,3,0,0,0-3-3H28.5V41.88A13,13,0,0,0,40,29Z"/></svg>
